build/system/SyncForbidOutline.svg

<svg xmlns="http://www.w3.org/2000/svg" fill="none" viewBox="0 0 24 24" focusable="false"><path d="M0 0H24V24H0z"/><path fill="#74767B" d="M12.9731 7.76737C12.972 7.95842 13.048 8.12583 13.1792 8.24908 13.2958 8.35863 13.4394 8.42489 13.6163 8.42644L17.3549 8.40482C17.7725 8.413 18.1012 8.06315 18.0669 7.64683L17.7792 3.99511C17.7467 3.63532 17.4342 3.36918 17.0813 3.39435 16.7215 3.42681 16.4481 3.73248 16.4805 4.09227L16.667 6.12868C15.3862 5.10922 13.7642 4.50006 12 4.50006 7.85786 4.50006 4.5 7.85792 4.5 12.0001 4.5 12.2685 4.5141 12.5337 4.54161 12.7948 4.58203 13.1786 4.96965 13.4092 5.33927 13.2983 5.65987 13.2021 5.85289 12.8801 5.82377 12.5467 5.80803 12.3666 5.8 12.1843 5.8 12.0001 5.8 8.57589 8.57583 5.80006 12 5.80006 13.4296 5.80006 14.7462 6.28392 15.795 7.09682L15.7846 7.10802 13.6322 7.12423C13.2784 7.12113 12.9831 7.40626 12.9731 7.76737ZM10.4963 15.7753C10.4974 15.5843 10.4214 15.4169 10.2902 15.2936 10.1736 15.1841 10.0301 15.1178 9.85316 15.1163L6.1146 15.1379C5.69695 15.1297 5.3683 15.4796 5.40252 15.8959L5.69026 19.5476C5.72272 19.9074 6.03524 20.1735 6.38818 20.1484 6.74796 20.1159 7.02139 19.8102 6.98893 19.4504L6.8017 17.4063C8.14984 18.7029 9.98183 19.5001 12 19.5001 12.4108 19.5001 12.8138 19.467 13.2067 19.4035 13.5598 19.3464 13.7698 18.9787 13.6846 18.6313 13.5983 18.2791 13.2441 18.0861 12.885 18.1374 12.596 18.1787 12.3005 18.2001 12 18.2001 10.3185 18.2001 8.7933 17.5306 7.67643 16.4438L7.68488 16.4347 9.83724 16.4185C10.1911 16.4216 10.4864 16.1365 10.4963 15.7753Z"/><path fill="#74767B" d="M10.4963 15.7753C10.4974 15.5843 10.4214 15.4169 10.2902 15.2936 10.1736 15.1841 10.0301 15.1178 9.85316 15.1163L6.1146 15.1379C5.69695 15.1297 5.3683 15.4796 5.40252 15.8959L5.69026 19.5476C5.72272 19.9074 6.03524 20.1735 6.38818 20.1484 6.74796 20.1159 7.02139 19.8102 6.98893 19.4504L6.8017 17.4063C8.14984 18.7029 9.98183 19.5001 12 19.5001 12.4108 19.5001 12.8138 19.467 13.2067 19.4035 13.5598 19.3464 13.7698 18.9787 13.6846 18.6313 13.5983 18.2791 13.2441 18.0861 12.885 18.1374 12.596 18.1787 12.3005 18.2001 12 18.2001 10.3185 18.2001 8.7933 17.5306 7.67643 16.4438L7.68488 16.4347 9.83724 16.4185C10.1911 16.4216 10.4864 16.1365 10.4963 15.7753ZM20.1698 11.8945C20.4283 11.6454 20.436 11.234 20.1869 10.9755 19.9378 10.7169 19.5263 10.7093 19.2678 10.9584L17.3822 12.7753 15.4965 10.9584C15.238 10.7093 14.8265 10.7169 14.5775 10.9755 14.3284 11.234 14.336 11.6454 14.5945 11.8945L16.4454 13.6779 14.5945 15.4613C14.336 15.7104 14.3284 16.1219 14.5774 16.3804 14.8265 16.6389 15.238 16.6466 15.4965 16.3975L17.3822 14.5806 19.2678 16.3975C19.5263 16.6466 19.9378 16.6389 20.1869 16.3804 20.436 16.1219 20.4284 15.7104 20.1699 15.4613L18.319 13.6779 20.1698 11.8945Z"/><path fill="#74767B" d="M20.1698 11.8945C20.4283 11.6454 20.436 11.234 20.1869 10.9755C19.9378 10.7169 19.5263 10.7093 19.2678 10.9584L17.3822 12.7753L15.4965 10.9584C15.238 10.7093 14.8265 10.7169 14.5775 10.9755C14.3284 11.234 14.336 11.6454 14.5945 11.8945L16.4454 13.6779L14.5945 15.4613C14.336 15.7104 14.3284 16.1219 14.5774 16.3804C14.8265 16.6389 15.238 16.6466 15.4965 16.3975L17.3822 14.5806L19.2678 16.3975C19.5263 16.6466 19.9378 16.6389 20.1869 16.3804C20.436 16.1219 20.4284 15.7104 20.1699 15.4613L18.319 13.6779L20.1698 11.8945Z"/></svg>

<svg xmlns="http://www.w3.org/2000/svg" fill="none" viewBox="0 0 24 24" focusable="false"><g fill="#74767B"><path d="M12.97 7.76c0 .19.07.36.2.48.12.11.26.18.44.18l3.74-.02c.42.01.75-.34.71-.76l-.29-3.65a.647.647 0 0 0-.69-.6c-.36.03-.64.34-.6.7l.18 2.03A7.45 7.45 0 0 0 12 4.5 7.49 7.49 0 0 0 4.5 12c0 .26.01.53.04.79.04.38.42.61.79.5.32-.09.52-.41.49-.75q-.03-.27-.03-.54c0-3.43 2.78-6.2 6.21-6.2 1.42 0 2.74.48 3.79 1.29l-.01.01-2.15.02c-.36 0-.65.28-.66.64M10.49 15.77a.64.64 0 0 0-.2-.48.63.63 0 0 0-.44-.18l-3.74.02a.69.69 0 0 0-.71.76l.29 3.65c.03.36.34.63.69.6.36-.03.64-.33.6-.69L6.8 17.4a7.45 7.45 0 0 0 6.4 2c.35-.06.56-.43.48-.77-.09-.36-.44-.55-.8-.5-.29.04-.58.07-.88.07-1.69 0-3.21-.67-4.33-1.76l.01-.01 2.15-.02c.36.01.65-.28.66-.64M20.16 11.89c.26-.25.27-.66.02-.92a.65.65 0 0 0-.92-.02l-1.88 1.82-1.89-1.82a.65.65 0 0 0-.92.02c-.25.26-.24.67.02.92l1.85 1.78-1.85 1.79c-.26.25-.27.66-.02.92.25.25.66.26.92.01l1.89-1.81 1.88 1.81c.26.25.67.24.92-.01.25-.26.24-.67-.02-.92l-1.85-1.79z"/></g></svg>
